docs/assets/images/fluidd_icon.svg

<?xml version="1.0" encoding="UTF-8"?>
<svg width="1264px" height="361px" viewBox="0 0 1264 361" version="1.1" xmlns="http://www.w3.org/2000/svg" xmlns:xlink="http://www.w3.org/1999/xlink">
    <!-- Generator: Sketch 55.2 (78181) - https://sketchapp.com -->
    <g id="fluidd_icon" stroke="none" stroke-width="1" fill="none" fill-rule="evenodd">
        <path d="M0,58.8014244 L156.9995,1 L314,58.8094301 L156.9995,159.777791 L0,58.8014244 Z M148.5607,172.350801 C151.172805,174.067031 154.086152,174.925647 156.9995,174.926647 C159.909845,174.926647 162.82019,174.070034 165.434296,172.354804 L238.895486,125.110946 L295.062742,153.796504 L156.9995,268.604783 L18.9362576,153.788498 L75.1035133,125.105943 L148.5607,172.350801 Z M72.4783982,218.006521 L147.160572,280.114032 C148.001249,280.833547 148.905978,281.448988 149.855744,281.957353 L149.867753,281.963357 L150.151982,282.110462 L150.260069,282.164501 L150.453225,282.258569 L150.631369,282.342629 L150.765477,282.404673 L150.999665,282.508748 L151.071723,282.538769 C152.75508,283.255283 154.533513,283.650566 156.318951,283.728622 L156.38,283.731624 L156.664229,283.740631 L156.77632,283.742632 L157.006505,283.743633 L157.206667,283.742632 L157.333769,283.740631 L157.632009,283.730624 L157.674043,283.729623 C159.463485,283.650566 161.247923,283.255283 162.936283,282.534767 L162.984322,282.514752 L163.250536,282.396668 L163.351618,282.350635 L163.545774,282.258569 L163.750939,282.159498 L163.83901,282.114465 L164.120237,281.968361 L164.150261,281.95335 C165.098025,281.445986 166.000752,280.831546 166.839428,280.113031 L236.659684,222.052421 L272.963936,246.012592 L156.998499,361 L36.405333,241.415298 L72.4783982,218.006521 Z" id="Combined-Shape" fill="#2E75AE"></path>
        <path d="M156.000899,0.320811107 L156.871412,0 L314,57.9144252 L156.974579,158.999753 L156.974579,0.320811107 L156.000899,0.320811107 Z" id="Combined-Shape" fill="#2196F3"></path>
        <path d="M157,174.673695 C159.876774,174.653763 162.750131,173.79968 165.334119,172.109522 L238.816524,125 L295,153.603991 L157,268.000341 L157,174.673695 Z" id="Combined-Shape" fill="#2196F3"></path>
        <path d="M157,283.22052 L157.104,283.22 L157.231,283.218 L157.529,283.208 L157.571,283.207 C159.359,283.128 161.142,282.733 162.829,282.013 L162.877,281.993 L163.143,281.875 L163.244,281.829 L163.438,281.737 L163.643,281.638 L163.731,281.593 L164.012,281.447 L164.042,281.432 C164.989,280.925 165.891,280.311 166.729,279.593 L236.493,221.574 L272.768,245.517 L157,360.318868 L157,283.22052 Z" id="Combined-Shape" fill="#2196F3"></path>
        <path d="M546.96,298.92 C537.786621,298.92 530.586693,296.093362 525.36,290.44 C520.133307,284.786638 517.52,277.58671 517.52,268.84 L517.52,109.16 C517.52,103.613306 516.346678,98.17336 514,92.84 C511.653322,87.50664 507.81336,83.1333504 502.48,79.72 C497.14664,76.3066496 489.893379,74.6 480.72,74.6 C471.759955,74.6 464.453362,76.999976 458.8,81.8 C453.146638,86.600024 449.040013,92.8932944 446.48,100.68 C443.919987,108.466706 442.533334,116.73329 442.32,125.48 L442.32,130.6 L479.44,130.6 L479.44,143.72 L442.32,143.72 L442.32,297 L426.32,297 L426.32,143.72 L402.96,143.72 L402.96,130.6 L426.32,130.6 L426.32,124.2 C426.32,111.826605 428.239981,100.893381 432.08,91.4 C435.920019,81.9066192 441.83996,74.3333616 449.84,68.68 C457.84004,63.0266384 468.13327,60.2 480.72,60.2 C498.000086,60.2 511.119955,64.5732896 520.08,73.32 C529.040045,82.0667104 533.52,93.1599328 533.52,106.6 L533.52,264.04 C533.52,270.866701 535.013318,275.933317 538,279.24 C540.986682,282.546683 544.933309,284.2 549.84,284.2 C554.320022,284.2 558.639979,283.720005 562.8,282.76 C566.960021,281.799995 569.679994,281.106669 570.96,280.68 L574.48,294.44 C573.199994,294.866669 571.066682,295.45333 568.08,296.2 C565.093318,296.94667 561.733352,297.586664 558,298.12 C554.266648,298.653336 550.586685,298.92 546.96,298.92 Z M597.2,226.6 L597.2,130.6 L613.2,130.6 L613.2,224.36 C613.2,245.053437 616.666632,260.466616 623.6,270.6 C630.533368,280.733384 641.03993,285.8 655.12,285.8 C664.506714,285.8 673.519957,283.720021 682.16,279.56 C690.800043,275.399979 698.426634,269.533371 705.04,261.96 C711.653366,254.386629 716.559984,245.586717 719.76,235.56 L719.76,130.6 L735.76,130.6 L735.76,275.88 C735.76,278.440013 736.346661,280.359994 737.52,281.64 C738.693339,282.920006 740.346656,283.666666 742.48,283.88 L742.48,297 C740.346656,297.213334 738.693339,297.32 737.52,297.32 C736.346661,297.32 735.333338,297.213334 734.48,297 C730.853315,296.573331 727.866678,295.02668 725.52,292.36 C723.173322,289.69332 721.893334,286.440019 721.68,282.6 L721.36,257.64 C714.10663,270.866733 704.133397,281.266629 691.44,288.84 C678.746603,296.413371 665.040074,300.2 650.32,300.2 C632.826579,300.2 619.600045,294.013395 610.64,281.64 C601.679955,269.266605 597.2,250.920122 597.2,226.6 Z M786.64,297 L786.64,130.6 L802.64,130.6 L802.64,297 L786.64,297 Z M786.64,92.84 L786.64,63.4 L802.64,63.4 L802.64,92.84 L786.64,92.84 Z M841.36,214.12 C841.36,198.546589 844.666634,184.253398 851.28,171.24 C857.893366,158.226602 866.959942,147.72004 878.48,139.72 C890.000058,131.71996 903.119926,127.72 917.84,127.72 C932.346739,127.72 945.199944,131.559962 956.4,139.24 C967.600056,146.920038 976.399968,156.09328 982.8,166.76 L982.8,63.4 L998.8,63.4 L998.8,275.88 C998.8,278.440013 999.386661,280.359994 1000.56,281.64 C1001.73334,282.920006 1003.38666,283.666666 1005.52,283.88 L1005.52,297 C1002.10665,297.426669 999.546675,297.533334 997.84,297.32 C993.999981,296.679997 990.800013,294.866682 988.24,291.88 C985.679987,288.893318 984.4,285.69335 984.4,282.28 L984.4,263.72 C977.573299,274.813389 968.400058,283.666634 956.88,290.28 C945.359942,296.893366 933.520061,300.2 921.36,300.2 C909.839942,300.2 899.173382,297.800024 889.36,293 C879.546618,288.199976 871.066702,281.746707 863.92,273.64 C856.773298,265.533293 851.226686,256.360051 847.28,246.12 C843.333314,235.879949 841.36,225.213389 841.36,214.12 Z M982.8,241 L982.8,186.28 C979.813318,178.173293 975.013366,170.760034 968.4,164.04 C961.786634,157.319966 954.320042,151.986686 946,148.04 C937.679958,144.093314 929.466707,142.12 921.36,142.12 C911.759952,142.12 903.066706,144.146646 895.28,148.2 C887.493294,152.253354 880.773362,157.693299 875.12,164.52 C869.466638,171.346701 865.146682,179.079957 862.16,187.72 C859.173318,196.360043 857.68,205.266621 857.68,214.44 C857.68,223.826714 859.38665,232.839957 862.8,241.48 C866.21335,250.120043 870.95997,257.799966 877.04,264.52 C883.12003,271.240034 890.15996,276.466648 898.16,280.2 C906.16004,283.933352 914.853286,285.8 924.24,285.8 C930.000029,285.8 936.133301,284.626678 942.64,282.28 C949.146699,279.933322 955.333304,276.680021 961.2,272.52 C967.066696,268.359979 971.973314,263.560027 975.92,258.12 C979.866686,252.679973 982.159997,246.973363 982.8,241 Z M1038.16,214.12 C1038.16,198.546589 1041.46663,184.253398 1048.08,171.24 C1054.69337,158.226602 1063.75994,147.72004 1075.28,139.72 C1086.80006,131.71996 1099.91993,127.72 1114.64,127.72 C1129.14674,127.72 1141.99994,131.559962 1153.2,139.24 C1164.40006,146.920038 1173.19997,156.09328 1179.6,166.76 L1179.6,63.4 L1195.6,63.4 L1195.6,275.88 C1195.6,278.440013 1196.18666,280.359994 1197.36,281.64 C1198.53334,282.920006 1200.18666,283.666666 1202.32,283.88 L1202.32,297 C1198.90665,297.426669 1196.34668,297.533334 1194.64,297.32 C1190.79998,296.679997 1187.60001,294.866682 1185.04,291.88 C1182.47999,288.893318 1181.2,285.69335 1181.2,282.28 L1181.2,263.72 C1174.3733,274.813389 1165.20006,283.666634 1153.68,290.28 C1142.15994,296.893366 1130.32006,300.2 1118.16,300.2 C1106.63994,300.2 1095.97338,297.800024 1086.16,293 C1076.34662,288.199976 1067.8667,281.746707 1060.72,273.64 C1053.5733,265.533293 1048.02669,256.360051 1044.08,246.12 C1040.13331,235.879949 1038.16,225.213389 1038.16,214.12 Z M1179.6,241 L1179.6,186.28 C1176.61332,178.173293 1171.81337,170.760034 1165.2,164.04 C1158.58663,157.319966 1151.12004,151.986686 1142.8,148.04 C1134.47996,144.093314 1126.26671,142.12 1118.16,142.12 C1108.55995,142.12 1099.86671,144.146646 1092.08,148.2 C1084.29329,152.253354 1077.57336,157.693299 1071.92,164.52 C1066.26664,171.346701 1061.94668,179.079957 1058.96,187.72 C1055.97332,196.360043 1054.48,205.266621 1054.48,214.44 C1054.48,223.826714 1056.18665,232.839957 1059.6,241.48 C1063.01335,250.120043 1067.75997,257.799966 1073.84,264.52 C1079.92003,271.240034 1086.95996,276.466648 1094.96,280.2 C1102.96004,283.933352 1111.65329,285.8 1121.04,285.8 C1126.80003,285.8 1132.9333,284.626678 1139.44,282.28 C1145.9467,279.933322 1152.1333,276.680021 1158,272.52 C1163.8667,268.359979 1168.77331,263.560027 1172.72,258.12 C1176.66669,252.679973 1178.96,246.973363 1179.6,241 Z" id="fuidd" fill="#606060" fill-rule="nonzero"></path>
    </g>
</svg>

<svg xmlns="http://www.w3.org/2000/svg" width="1264" height="361" viewBox="0 0 1264 361">
  <g fill="none" fill-rule="evenodd">
    <path fill="#2e75ae" d="M0 58.801 157 1l157 57.81-157 100.968zm148.56 113.55c2.613 1.716 5.526 2.575 8.44 2.576 2.91 0 5.82-.857 8.434-2.572l73.461-47.244 56.168 28.686L157 268.605 18.936 153.788l56.168-28.682zm-76.082 45.656 74.683 62.107a15 15 0 0 0 2.695 1.843l.012.006.284.147.108.055.193.094.178.084.134.062.235.104.072.03a15.1 15.1 0 0 0 5.247 1.19l.061.003.284.009.112.002h.43l.128-.002.298-.01.042-.001c1.79-.08 3.574-.475 5.262-1.195l.048-.02.267-.118.1-.046.195-.092.205-.1.088-.045.281-.146.03-.015a15 15 0 0 0 2.69-1.84l69.82-58.06 36.304 23.96L156.998 361 36.405 241.415z"/>
    <path fill="#2196f3" d="m156 .32.871-.32L314 57.914 156.975 159V.32zm1 174.354c2.877-.02 5.75-.874 8.334-2.564L238.817 125 295 153.604 157 268zm0 108.546h.104l.127-.002.298-.01.042-.001a15.1 15.1 0 0 0 5.258-1.194l.048-.02.266-.118.101-.046.194-.092.205-.099.088-.045.281-.146.03-.015a15 15 0 0 0 2.687-1.839l69.764-58.019 36.275 23.943L157 360.319z"/>
    <path fill="#606060" fill-rule="nonzero" d="M546.96 298.92q-13.76 0-21.6-8.48t-7.84-21.6V109.16q0-8.32-3.52-16.32t-11.52-13.12-21.76-5.12q-13.44 0-21.92 7.2t-12.32 18.88-4.16 24.8v5.12h37.12v13.12h-37.12V297h-16V143.72h-23.36V130.6h23.36v-6.4q0-18.56 5.76-32.8t17.76-22.72 30.88-8.48q25.92 0 39.36 13.12t13.44 33.28v157.44q0 10.24 4.48 15.2t11.84 4.96q6.72 0 12.96-1.44t8.16-2.08l3.52 13.76q-1.92.64-6.4 1.76T558 298.12t-11.04.8m50.24-72.32v-96h16v93.76q0 31.04 10.4 46.24t31.52 15.2q14.08 0 27.04-6.24t22.88-17.6 14.72-26.4V130.6h16v145.28q0 3.84 1.76 5.76t4.96 2.24V297q-3.2.32-4.96.32t-3.04-.32q-5.44-.64-8.96-4.64t-3.84-9.76l-.32-24.96q-10.88 19.84-29.92 31.2t-41.12 11.36q-26.24 0-39.68-18.56T597.2 226.6M786.64 297V130.6h16V297zm0-204.16V63.4h16v29.44zm54.72 121.28q0-23.36 9.92-42.88t27.2-31.52 39.36-12q21.76 0 38.56 11.52t26.4 27.52V63.4h16v212.48q0 3.84 1.76 5.76t4.96 2.24V297q-5.12.64-7.68.32-5.76-.96-9.6-5.44t-3.84-9.6v-18.56q-10.24 16.64-27.52 26.56t-35.52 9.92q-17.28 0-32-7.2t-25.44-19.36-16.64-27.52-5.92-32M982.8 241v-54.72q-4.48-12.16-14.4-22.24t-22.4-16-24.64-5.92q-14.4 0-26.08 6.08t-20.16 16.32-12.96 23.2a81.2 81.2 0 0 0-4.48 26.72q0 14.08 5.12 27.04t14.24 23.04 21.12 15.68 26.08 5.6q8.64 0 18.4-3.52t18.56-9.76 14.72-14.4T982.8 241m55.36-26.88q0-23.36 9.92-42.88t27.2-31.52 39.36-12q21.76 0 38.56 11.52t26.4 27.52V63.4h16v212.48q0 3.84 1.76 5.76t4.96 2.24V297q-5.12.64-7.68.32-5.76-.96-9.6-5.44t-3.84-9.6v-18.56q-10.24 16.64-27.52 26.56t-35.52 9.92q-17.28 0-32-7.2t-25.44-19.36-16.64-27.52-5.92-32M1179.6 241v-54.72q-4.48-12.16-14.4-22.24t-22.4-16-24.64-5.92q-14.4 0-26.08 6.08t-20.16 16.32-12.96 23.2a81.2 81.2 0 0 0-4.48 26.72q0 14.08 5.12 27.04t14.24 23.04 21.12 15.68 26.08 5.6q8.64 0 18.4-3.52t18.56-9.76 14.72-14.4 6.88-17.12"/>
  </g>
</svg>
